src/lib/packages/icons/src/assets/filled/envelope-settings.svg

<svg width="24" height="24" viewBox="0 0 24 24" fill="none" xmlns="http://www.w3.org/2000/svg">
<path d="M16.24 13.68C16.43 13 17.0601 12.5 17.8101 12.5H19.1399C19.3189 12.5 19.4889 12.528 19.6479 12.581C19.7729 12.623 20 12.523 20 12.307V7C20 5 19 4 17 4H5C3 4 2 5 2 7V16C2 18 3 19 5 19H13.1831C13.4241 19 13.5079 18.798 13.5029 18.696C13.4959 18.533 13.5171 18.37 13.5601 18.21C13.6301 17.94 13.76 17.7 13.95 17.5C13.76 17.3 13.63 17.06 13.55 16.79C13.44 16.37 13.51 15.92 13.73 15.54L14.3999 14.42C14.6899 13.93 15.23 13.62 15.8 13.62C15.95 13.62 16.1 13.64 16.24 13.68ZM12.0291 12.179C11.7211 12.403 11.36 12.515 11 12.515C10.64 12.515 10.2779 12.403 9.97095 12.18L5.05908 8.60699C4.72408 8.36399 4.65004 7.89401 4.89404 7.55901C5.13604 7.22601 5.60489 7.149 5.94189 7.394L10.854 10.966C10.942 11.029 11.059 11.03 11.147 10.966L16.0591 7.394C16.3961 7.149 16.8649 7.22501 17.1069 7.55901C17.3509 7.89401 17.2769 8.36299 16.9419 8.60699L12.0291 12.179ZM21.884 18.512C21.513 18.303 21.284 17.918 21.283 17.502C21.283 17.084 21.511 16.698 21.884 16.488L22 16.423L21.198 15.077L21.083 15.141C20.709 15.35 20.249 15.35 19.876 15.14C19.505 14.931 19.2771 14.547 19.2771 14.131C19.2771 14.059 19.2161 14 19.1421 14H17.8081C17.7331 14 17.6731 14.059 17.6731 14.131C17.6731 14.547 17.445 14.931 17.074 15.14C16.701 15.35 16.2409 15.351 15.8669 15.141C15.8039 15.105 15.722 15.127 15.686 15.188L15.0171 16.311C14.9801 16.372 15.0019 16.451 15.0649 16.487L15.0669 16.488C15.4379 16.697 15.666 17.081 15.667 17.496C15.668 17.914 15.4389 18.301 15.0669 18.511L15.0649 18.512C15.0019 18.548 14.9801 18.627 15.0161 18.688L15.6851 19.81C15.7221 19.872 15.8029 19.893 15.8669 19.857C16.2399 19.648 16.7 19.648 17.073 19.858C17.444 20.067 17.6719 20.452 17.6709 20.868C17.6709 20.94 17.7309 20.999 17.8059 20.999H19.1421C19.2161 20.999 19.2771 20.941 19.2771 20.869C19.2771 20.453 19.505 20.069 19.876 19.86C20.249 19.65 20.709 19.649 21.083 19.859C21.146 19.895 21.2279 19.873 21.2639 19.812L21.9331 18.689C21.9701 18.628 21.948 18.549 21.885 18.513L21.884 18.512ZM18.519 18.5C17.967 18.5 17.5139 18.052 17.5139 17.5C17.5139 16.948 17.957 16.5 18.509 16.5H18.519C19.072 16.5 19.519 16.948 19.519 17.5C19.519 18.052 19.072 18.5 18.519 18.5Z" fill="currentColor"/>
</svg>

<svg xmlns="http://www.w3.org/2000/svg" width="24" height="24" fill="none"><path fill="currentColor" d="M16.24 13.68c.19-.68.82-1.18 1.57-1.18h1.33a1.6 1.6 0 0 1 .508.081c.125.042.352-.058.352-.274V7c0-2-1-3-3-3H5C3 4 2 5 2 7v9c0 2 1 3 3 3h8.183a.306.306 0 0 0 .32-.304 1.606 1.606 0 0 1 .057-.486c.07-.27.2-.51.39-.71-.19-.2-.32-.44-.4-.71-.11-.42-.04-.87.18-1.25l.67-1.12a1.642 1.642 0 0 1 1.84-.74Zm-4.21-1.501a1.748 1.748 0 0 1-2.059.001L5.059 8.607a.75.75 0 1 1 .883-1.213l4.912 3.572a.25.25 0 0 0 .293 0l4.912-3.572a.75.75 0 1 1 .883 1.213l-4.913 3.572Zm9.854 6.333a1.166 1.166 0 0 1-.601-1.01c0-.418.228-.804.601-1.014l.116-.065-.802-1.346-.115.064a1.238 1.238 0 0 1-1.207-.001 1.16 1.16 0 0 1-.599-1.009.134.134 0 0 0-.135-.131h-1.334a.133.133 0 0 0-.135.131c0 .416-.228.8-.599 1.009-.373.21-.833.211-1.207.001a.135.135 0 0 0-.181.047l-.669 1.123a.127.127 0 0 0 .048.176l.002.001c.37.209.599.593.6 1.008.001.418-.228.805-.6 1.015l-.002.001a.128.128 0 0 0-.049.176l.67 1.122a.135.135 0 0 0 .18.047 1.236 1.236 0 0 1 1.207.001c.371.209.599.594.598 1.01 0 .072.06.131.135.131h1.336a.133.133 0 0 0 .135-.13c0-.416.228-.8.599-1.009.373-.21.833-.211 1.207-.001a.135.135 0 0 0 .18-.047l.67-1.123a.127.127 0 0 0-.048-.176l-.001-.001Zm-3.365-.012a1.005 1.005 0 0 1-1.005-1c0-.552.443-1 .995-1h.01a1 1 0 1 1 0 2Z"/></svg>
